; este comando define o tamanho dos lados do triângulo equilátero
make "lado 100

; este loop cria o triângulo equilátero
repeat 3 [
  forward :lado
  right 120 ; Ângulo de 120 graus para um triângulo equilátero
]
